svg/fluentui-system-icons/ic_fluent_bed_20_filled.svg

<svg width="20" height="20" viewBox="0 0 20 20" fill="none" xmlns="http://www.w3.org/2000/svg">
<path d="M15.5 9C16.8255 9 17.91 10.0315 17.9947 11.3356L18 11.5V16.5C18 16.7761 17.7761 17 17.5 17C17.2545 17 17.0504 16.8231 17.0081 16.5899L17 16.5V14H3V16.5C3 16.7761 2.77614 17 2.5 17C2.25454 17 2.05039 16.8231 2.00806 16.5899L2 16.5V11.5C2 10.1745 3.03154 9.08996 4.33562 9.00532L4.5 9H15.5ZM6.5 3H13.5C14.8255 3 15.91 4.03154 15.9947 5.33562L16 5.5V8H14V7.5C14 7.25454 13.8231 7.05039 13.5899 7.00806L13.5 7H11C10.7545 7 10.5504 7.17688 10.5081 7.41012L10.5 7.5V8H9.5V7.5C9.5 7.25454 9.32312 7.05039 9.08988 7.00806L9 7H6.5C6.25454 7 6.05039 7.17688 6.00806 7.41012L6 7.5V8H4V5.5C4 4.17452 5.03154 3.08996 6.33562 3.00532L6.5 3Z" fill="#212121"/>
</svg>

<svg xmlns="http://www.w3.org/2000/svg" width="20" height="20"><path d="M15.5 9a2.5 2.5 0 0 1 2.495 2.336L18 11.5v5a.5.5 0 0 1-.992.09L17 16.5V14H3v2.5a.5.5 0 0 1-.992.09L2 16.5v-5a2.5 2.5 0 0 1 2.336-2.495L4.5 9h11Zm-9-6h7a2.5 2.5 0 0 1 2.495 2.336L16 5.5V8h-2v-.5a.5.5 0 0 0-.41-.492L13.5 7H11a.5.5 0 0 0-.492.41l-.008.09V8h-1v-.5a.5.5 0 0 0-.41-.492L9 7H6.5a.5.5 0 0 0-.492.41L6 7.5V8H4V5.5a2.5 2.5 0 0 1 2.336-2.495L6.5 3Z"/></svg>
